X: 28516
T: Munster Buttermilk
R: jig
M: 6/8
K: Dmajor
|:d3 edB|A2F FEF|A2F FEF|AFE DFA|
d3 edB|A2F FEF|AFE DEF|E3 D3:|
|:A2B d2e|~f3 fed|~e3 edc|d3 edB|
A2B d2e|~f3 fed|edB ABd|e3 d3:|

